priv/static/svgs/icons_new/sport-badminton.svg

<svg width="32" height="32" viewBox="0 0 32 32" fill="none" xmlns="http://www.w3.org/2000/svg">
<path d="M13.5624 8.73104L11.838 7.0017C11.5204 6.68412 11.1435 6.43221 10.7285 6.26034C10.3136 6.08846 9.86894 6 9.41984 6C8.97075 6 8.52604 6.08846 8.11114 6.26034C7.69623 6.43221 7.31924 6.68412 7.0017 7.0017C6.68412 7.31924 6.43221 7.69624 6.26034 8.11114C6.08846 8.52605 6 8.97075 6 9.41984C6 9.86894 6.08846 10.3136 6.26034 10.7285C6.43221 11.1435 6.68412 11.5204 7.0017 11.838L8.73104 13.5673L13.5624 8.73104ZM13.5624 8.73104L24.9644 14.603L26 17.0211L22.8931 16.6743M22.8931 16.6743L23.235 19.7812H19.7812M22.8931 16.6743L18.3987 13.5673M19.7812 19.7812V23.235L16.6743 22.8931M19.7812 19.7812L15.9855 15.9806M16.6743 22.8931L17.0211 26L14.2561 24.6175L8.73104 13.5624M16.6743 22.8931L13.5673 18.3987M18.4036 11.4911V13.5624H15.6386L15.9806 15.9806L13.5624 15.6386L13.5673 18.4036L11.1492 18.0568M15.6386 13.5673L11.838 10.4555M13.5673 15.6386L10.4555 11.838" stroke="black" stroke-linecap="round" stroke-linejoin="round"/>
</svg>

<svg width="32" height="32" viewBox="0 0 32 32" fill="none" xmlns="http://www.w3.org/2000/svg">
  <symbol id="item" viewBox="0 0 32 32" stroke-width="1" fill="none">
    <path d="m13.562 8.731-1.724-1.73a3.42 3.42 0 1 0-4.836 4.837l1.729 1.73 4.831-4.837Zm0 0 11.402 5.872L26 17.021l-3.107-.347m0 0 .342 3.107h-3.454m3.112-3.107L18.4 13.567m1.382 6.214v3.454l-3.107-.342m3.107-3.112-3.795-3.8m.688 6.912L17.021 26l-2.765-1.383-5.525-11.055m7.943 9.331L13.567 18.4m4.837-6.908v2.071h-2.765l.342 2.419-2.419-.342.005 2.765-2.418-.347m4.49-4.49-3.801-3.111m1.73 5.183-3.112-3.801" stroke="currentColor" stroke-linecap="round" stroke-linejoin="round"/>
  </symbol>
</svg>
